!!!ONB: MCCC : IGF0120_00 : Extracted Monophonic Melody
!!!COM: Fauré, Gabriel
!!!OTL: Valse Caprice No.3 in G-flat, Op.59
!!!SCT: Op.59
!!!ODT: 1893///
**kern
*staff1
=1
*clefG2
*k[b-e-a-d-g-]
*D-:
*M3/4
4B-
4b-
4B-
=2
4c-
8cc-
8c-
8B-
8c-
=3
4d
4dd
4r
=4
4e-
4ee-
4e-
=5
2.e-
=6
2.r
=7
8r
8g-
8ee-
8ee-
8gg-
8eee-[
=8
8eee-]
8ccc-
8ff
8ff
8ee-
8cc-
=9
4f
4ff
4f
=10
4g-
8dd-
8g-
8f
8g-
=11
4a
4aa
4r
=12
4b-
4bb-
4b-
=13
8b-
8dd-
8bb-
8bb-
8ddd-
8bbb-[
=14
8bbb-]
8ggg-
8ccc
8ccc
8bb-
8gg-
=15
8b-
8dd-
8bb-
8bb-
8ddd-
8bbb-[
=16
8bbb-]
8ggg-
8ccc
8ccc
8bb-
8gg-
=17
4cc
4cc[
4cc]
=18
4dd-
8ee-
8dd-
8cc
8dd-
=19
4aa-
2aa-
=20
8ddd-
8aa-
8ff
8dd-
8a-
8f
=21
8r
8f-
8a
8ff-
8ff-
8aa
=22
8fff
8ddd-
8aa-
8ff
8dd-
8a-
=23
8r
8ff-
8aa
8fff-
8fff-
8aaa
=24
8ffff
8dddd-
8aaa-
8fff
8ddd-
8aa-
=25
8fff
8ddd-
8aa-
8ff
8dd-
8a-
=26
4ff
4r
4r
=27
4r
4r
8r
8d-
=28
8f
8a-
8dd-
8ff
8aa-
8ccc
=29
12ddd-
12eee-
12ddd-
16eee-
16ddd-
16eee-
16ddd-
16eee-
16ddd-
16eee-
16ddd-
=30
16eee-
16ddd-
16eee-
16ddd-
16eee-
16ddd-
16eee-
16ddd-
16eee-
16ddd-
16eee-
16ddd-
=31
16eee-
16ddd-
16eee-
16ddd-
16eee-
16ddd-
16eee-
16ddd-
16eee-
16ddd-
16eee-
16ddd-
=32
12eee-
12ddd-
12eee-
8ddd-
8ccc-
8ddd-
8eee-
=33
4fff-
4ddd-
4bb-
=34
4gg
4aa-
4bb-
=35
4ccc-
4aa-
4ff
=36
4dd
4ee-
4ff
=37
4gg-
4ff
4gg-
=38
4aa-
4gg
4aa-
=39
4ddd-
4ddd-
4ddd-[
=40
2ddd-]
4aa-
=41
4bb-
4bb-[
4bb-]
=42
8aa-
8gg-
8dd-
8b-
8g-
8d-
=43
2.B-
=44
4c-
8d-
8c-
8B-
8c-
=45
4d
2d
=46
2.e-[
=47
2.e-]
=48
2.d-
=49
2d-
8d-
8g-
=50
8b-
8dd-
8gg-
8bb-
8ddd-
8eee-
=51
4ffff-
4ddd-
4bb-
=52
4ggg
4aa-
4bb-
=53
4cccc-
4aa-
4ff
=54
4ddd
4r
4r
=55
4gg-
4ff
8.gg-
32aa-
32bb-
=56
4aa-
4gg
4aa-
=57
2.ddd-[
=58
2ddd-]
4aa
=59
4r
4ff
4r
=60
8r
8aa
8ccc
8bb-
8ff
8dd
=61
8b-
8a
8cc
8b-
8f
8d
=62
2.B-
=63
4c-
8c
8c-
8B-
8c-
=64
4d
2d
=65
2.d
=66
2.d[
=67
2.d]
=68
2.e-
=69
2.r
=70
2.d-
=71
4r
8g-
8b-
8dd-
8gg-
=72
8bb-
8ddd-
8ggg-
8bbb-
8dddd-
8eeee-
=73
8ffff-
8eeee-
8gggg-
8ffff-
8dddd-
8bbb-
=74
8ggg
8ggg-
8aaa-
8ggg
8bbb-
8aaa-
=75
8cccc-
8bbb-
8dddd-
8cccc-
8aaa-
8fff
=76
8ddd
8ddd-
8eee-
8ddd
8fff
8eee-
=77
8ggg-
8fff
8aaa-
8ggg-
8bbb-
8aaa-
=78
8fff-
8fff
8ggg-
8ggg
8aaa-
8bbb-
=79
8cccc-
8bbb-
8dddd-
8cccc-
8eeee-
8dddd-
=80
8aaa
8bbb-
8cccc-
8cccc
8dddd-
8eeee-
=81
8ffff-
8aaa
8ggg
8fff-
8ddd-
8bb-
=82
8gg
8aa-
8ccc
8eee-
8aaa-
8bbb-
=83
8cccc-
8fff-
8ddd
8ccc-
8aa-
8ff
=84
8dd
8ee-
8gg-
8aa
8eee-
8fff
=85
8ggg-
8ff
8aa-
8gg-
8bb-
8aa-
=86
8ff-
8ff
8gg-
8gg
8bb-
8aa-
=87
8ggg-
8ff
8aa-
8gg-
8bb-
8aa-
=88
8ff
8gg-
8gg
8aa-
8aa
8bb-
=89
8ccc-
8ccc
8ddd-
8ddd
8eee-
8fff-
=90
8fff
8ggg-
8ggg
8aaa-
8aaa
8bbb-
=91
8cccc-
8cccc
8dddd-
8dddd
8gggg-
8ffff-
=92
8dddd
8ggg
4ddd
4r
=93
4cc-
8cc
8cc-
8b-
8cc-
=94
4dd
4r
4r
=95
8ff
8ccc-
8eee-
8fff
8ffff
8eeee-
=96
8dddd
8ggg
4ddd
4r
=97
4cc-
8cc
8cc-
8b-
8cc-
=98
4ff
4r
4r
=99
8aa
8ccc
8ggg-
8aaa
8ffff
8eeee-
=100
8dddd-
8ggg-
4ddd-
4r
=101
4bb-
8ccc-
8bb-
8aa
8bb-
=102
4ddd
4eee-
4ccc
=103
4ddd-
8ccc
8bb-
8aa
8bb-
=104
4ddd
4eee-
4ccc
=105
4ddd-
8ccc-
8bb-
8aa
8bb-
=106
4ggg
4aaa-
4fff
=107
4ggg-
4eee-
4aa-
=108
4aa-
4aa
4ff
=109
4gg-
4ee-
4r
=110
8r
8dd
8ff-
8gg-
8gg
8aa
=111
8bb
8ccc
8ddd
8fff-
8ggg-
8ggg
=112
8aaa-
8bbb-
8cccc-
8dddd-
8eeee-
8ffff
=113
4gggg-
4r
4r
=114
2.r
=115
2.r
=116
4r
8a
8g
8f#
8g
=117
4r
8ee-
8dd-
8cc
8dd-
=118
8r
8gg-
8aa-
8gg-
8ff
8gg-
=119
8r
8ccc-
8ddd-
8ccc-
8bb-
8ccc-
=120
8r
8fff-
8ggg-
8fff-
8eee-
8fff-
=121
8r
8dddd-
8eeee-
8dddd-
8cccc
8dddd-
=122
4gggg-
8ddd-
8gg-
4dd-
=123
4r
8dd-
8g-
4d-
=124
2.r
=125
4ggg-
4r
4r
=126
*M4/4
1r
=127
*M3/4
2g-
4gg-
=128
4gggg-[
2gggg-]
=129
2gg-
4gggg-[
=130
2.gggg-]
=131
2.r
=132
2g
4gg
=133
4gggg[
2gggg]
=134
2gg
4gggg[
=135
2.gggg]
=136
2.r
=137
2a-
4aa-
=138
4aaaa-[
2aaaa-]
=139
2aa-
4aaaa-
=140
4aaaa-
2aa-
=141
2.aaaa-
=142
2.aa-
=143
2.aa-
=144
4aa-
4aa-
4aa-
=145
4aa-
4aa-
4aa-
=146
4aa-
4aa-
4aa-
=147
4aa-[
4aa-]
4aa-
=148
2.aa-
=149
2aaaa-
4aa-
=150
2.aa-
=151
2aa-
4aaaa-[
=152
4aaaa-]
2aa-
=153
2.aa-
=154
2.aa-
=155
2.aa-[
=156
4aa-]
4r
4r
=157
2aaaa-
4aa-
=158
2.aa-
=159
2aa-
4aaaa-[
=160
4aaaa-]
4aa-
4aa-
=161
4aa-[
4aa-]
4aa
=162
4ccc-[
2ccc-]
=163
2ddd-
4gg-
=164
2.gg-
=165
2.gg-
=166
*M4/4
2gg-
2r
=167
*M3/4
2gggg
4gg
=168
2.gg
=169
2gg
4gggg[
=170
4gggg]
4gg
4gg
=171
4gg[
4gg]
4aa
=172
4ccc-[
2ccc-]
=173
2ccc
4f
=174
2.f
=175
2.f
=176
*M4/4
1f
=177
*M3/4
4f
4d
4e-
=178
4f
4g
4a-
=179
4b-
4cc
4dd
=180
4ee-
4ff
4gg-
=181
4r
2aa-
=182
2.aa-
=183
2.aa-[
=184
2aa-]
4r
=185
4r
2aa-
=186
2.aa-
=187
2.aa-[
=188
2.aa-]
=189
4aaa-
4gg[
4gg]
=190
4aa-[
4aa-]
4ccc[
=191
4ccc]
4ddd-[
4ddd-]
=192
4fff[
4fff]
4aa-
=193
2aa-
4aa-
=194
2aa-
4aa-
=195
4aa-
4aa-
4aa-
=196
8ff
8gg
8bb-
8aa-
8r
8ggg
=197
8bbb-
8aaa-
8ff-
8aa
8ccc
8bb-
=198
8ff
8gg
8bb-
8aa-
8r
8ggg
=199
8bbb-
8aaa-
8ff-
8aa
8ccc
8bb-
=200
8aa-
8ccc-
8ddd-
8ccc
8aa-
8ccc
=201
8aa-
8ccc
8gg
8ccc-
8ddd-
8ccc
=202
8gg-
8aa
8ccc
8bb-
8ff
8aa-
=203
8ccc-
8aa
8ff-
8gg
8bb-
8aa-
=204
8ff
8gg
8bb-
8aa-
8r
8ggg
=205
8bbb-
8aaa-
8ff-
8aa
8ccc
8bb-
=206
8ff
8gg
8bb-
8aa-
8r
8ggg
=207
8bbb-
8aaa-
8ff-
8aa
8ccc
8bb-
=208
8aa-
8ccc-
8ddd
8ccc
8aa-
8ccc
=209
8aa-
8ccc
8gg
8ccc-
8ddd
8ccc
=210
8ff
8gg
8bb-
8aa-
8dd-
8ff-
=211
8gg
8ff
8ee-
8gg-
8aa-
8gg
=212
16gg-
8.gg-[
2gg-]
=213
4cc
4r
4r
=214
8dd
8ee-
8ff
8gg
8aa-
8bb-
=215
8gg
8aa-
8bb-
8ccc-
8ccc
8ddd
=216
4aa-
2fff
=217
4ccc
4r
4r
=218
8ddd
8eee-
8fff
8ggg
8aaa-
8bbb-
=219
8ggg
8aaa-
8bbb-
8cccc-
8cccc
8dddd
=220
2.ffff
=221
8cccc
8bbb-
8cccc-
8cccc
8dddd-
8dddd
=222
2.ffff
=223
8ccc
8bb-
8ccc-
8ccc
8ddd-
8ddd
=224
8eee-
8fff-
8ggg-
8aaa-
8bbb-
8cccc-
=225
8bbb-
8aaa-
8ggg-
8fff-
8ggg-
8aaa-
=226
8bbb-
8cccc-
8dddd-
8eeee-
8ffff-
8gggg-
=227
8ffff-
8eeee-
8dddd-
8eeee-
8ffff-
8gggg-
=228
4aaaa-
4r
4dddd-[
=229
4dddd-]
4ddd-
4dd-
=230
4r
4r
4g-[
=231
4g-]
4gg-
4ggg-
=232
4r
4r
8r
8f
=233
8d
8e-
8b-
8a-
8cc
8ee-
=234
4ccc
4r
8r
8ff
=235
8dd-
8ff-
8bb-
8aa-
8ccc
8fff-
=236
4cccc
4r
8r
8ggg
=237
8eee
8fff
8bbb-
8aaa-
8cccc
8dddd
=238
8aaaa-
8ffff
8eeee-
8cccc
8aaa-
8fff
=239
8eee-
8fff
8aaa-
8cccc
8eeee-
8ffff
=240
8aaaa-
8ffff
8eeee-
8cccc
8aaa-
8fff
=241
8eee-
8fff
8aaa-
8cccc
8eeee-
8ffff
=242
8aaaa-
8ffff
8eeee-
8cccc
8aaa-
8fff
=243
8eee-
8fff
8aaa-
8cccc
8eeee-
8ffff
=244
4aaaa-
4r
4r
=245
2.r
=246
4r
4g-
4a-
=247
4.b-
4.g-
=248
4.e-
4.c
=249
2B-
4b-
=250
4b-
2d-
=251
2c
4b-
=252
4b-
4g-
4a-
=253
2e-
4b-
=254
4r
4gg-
4aa-
=255
8.aa
32aa
32ccc
4bb-
4gg-
=256
4.ee-
4.cc
=257
2b-
4b-
=258
4b-
2e-[
=259
2e-]
4r
=260
2.r
=261
4a
4r
4b-[
=262
8.b-]
32r
32b-
4ff
4gg-
=263
4bb-
4aa-
4gg-
=264
8.dd
32dd
32ff
4ee-
4cc
=265
2.b-[
=266
2b-]
4r
=267
2.b-[
=268
4b-]
4ee-
4dd-
=269
4cc
4cc
4b-[
=270
8.b-]
16dd[
8dd]
8ee-[
16ee-]
8.ff
=271
8.aa-
16gg-[
8gg-]
8ff[
16ff]
8.dd
=272
4ff
4ee-
4cc
=273
2.b-[
=274
4b-]
4ee-
4dd-
=275
2.cc-[
=276
4cc-]
4ff
4ee-
=277
2.dd-[
=278
8dd-]
8ee-
8ff-
8ff
8gg
8aa-
=279
8bb-
8ccc
8ddd-
8eee-
8fff-
8fff
=280
8ddd-
8bb-
8ff
8dd-
8b-
8f-
=281
2e-
4a-[
=282
4a-]
4f
4g-
=283
4.d-
4.a-
=284
4d-
4g-
4a-
=285
4.g-
4.b-
=286
4r
4g-
4a-
=287
4e-
4b-
4b-[
=288
4b-]
4a
4b-
=289
2.ee-
=290
2ff
4r
=291
2.ff
=292
2gg
4r
=293
2.gg
=294
4.aa
4.bb-
=295
2.ccc
=296
2.bb-[
=297
2.bb-]
=298
4.aa
4.bb-
=299
4.ccc-
4.ccc
=300
2.bb-[
=301
2.bb-]
=302
4.aa
4.bb-
=303
2.ccc
=304
4bb-
8bb-
8ccc[
4ccc]
=305
2.ddd-
=306
4ccc
8ccc
8ddd-[
4ddd-]
=307
2.eee-
=308
4.ddd-
4.eee-
=309
2.fff[
=310
4fff]
4r
4r
=311
4a-
4dd-
4ff
=312
4aa-
4ddd-
4eee-
=313
4fff
4eee-
4ddd-
=314
4ccc
4ddd-
4eee-
=315
4fff
4ggg-
4aaa-[
=316
4aaa-]
8r
8a-
8dd-
8ff
=317
8aa-
8ddd-
8fff
8aaa-
8dddd-
8ffff
=318
8eeee-
8dddd-
8aaa-
8fff
8eee-
8ddd-
=319
8aa-
8ff
8dd-
8a-
4r
=320
4r
4ccc
4ddd-
=321
4eee-
4ccc
4aa-
=322
4bb-
4ccc
4ddd-
=323
4eee-
4fff
4ggg-[
=324
4ggg-]
8r
8cc
8ee-
8aa-
=325
8ccc
8eee-
8aaa-
8cccc
8eeee-
8aaaa-
=326
8gggg-
8eeee-
8cccc
8aaa-
8ggg-
8eee-
=327
8ccc
8aa-
8gg-
8ee-
4cc
=328
4r
4aa-
4aa-
=329
4aa-[
4aa-]
4aa
=330
4ccc-[
2ccc-]
=331
8r
8gg
8aa
8ff-
8ddd[
8ddd]
=332
4ddd
8r
8gg
8ddd-
8gg
=333
2ggg-
8r
8ddd-
=334
8fff-
8aa-
2aaa
=335
8r
8eee-
8fff
8ccc-
4dddd-[
=336
4dddd-]
8r
8fff
8cccc
8eee-
=337
4.ffff
8eeee-
4dddd-[
=338
4dddd-]
4bbb-
4fff
=339
4.eee-
8ddd-
4bb-[
=340
4bb-]
4gg
4ff-
=341
4.dd-
8a
4g-[
=342
4g-]
4f
4e-
=343
2.r
=344
2.r
=345
2.r
=346
2.r
=347
2.r
=348
2.r
=349
2.r
=350
2.r
=351
2.r
=352
2.r
=353
2.r
=354
2.r
=355
2.r
=356
8r
8aa-
8cc
8a-
8a-
8c
=357
2.A-
=358
2.r
=359
8r
8d-
8b-
8b-
8dd-
8bb-[
=360
8bb-]
8bb-
8dd-
8b-
8b-
8d-
=361
2.r
=362
2.r
=363
2.r
=364
2.r
=365
2.r
=366
2.r
=367
2.r
=368
2.r
=369
2.r
=370
2.r
=371
2.r
=372
2.r
=373
2.r
=374
8r
8ccc
8ff-
8cc
8cc
8f-
=375
2.c
=376
2.r
=377
8r
8f
8dd
8dd
8ff
8ddd[
=378
8ddd]
8ddd
8ff
8dd
8dd
8f
=379
2.f-
=380
2.B-
=381
2.A-
=382
4.A
4.B-
=383
4c-
8c
8c-
8B-
8c-
=384
4c
2c
=385
2.dd-
=386
4.ee-[
4.ee-]
=387
2.cc
=388
4.dd-
4.ee-
=389
4ff-
8gg-
8ff-
8ee-
8ff-
=390
4aa-
8bb-
8aa-
8gg
8aa-
=391
8ddd-
8aa-
8ff
8dd-
8a-
8f
=392
8f-
8a
8a
8ff-
8ff-
8aa
=393
8fff
8ddd-
8aa-
8ff
8dd-
8a-
=394
8r
8ff-
8aa
8fff-
8fff-
8aaa
=395
8ffff
8dddd-
8aaa-
8fff
8ddd-
8aa-
=396
8fff
8ddd-
8aa-
8ff
8dd-
8a-
=397
8ff
8dd-
8a-
8f
8d-
8A-
=398
4r
4r
8r
8d-
=399
8f
8a-
8dd-
8ff
8aa-
8ccc
=400
12ddd-
12eee-
12ddd-
16eee-
16ddd-
16eee-
16ddd-
16eee-
16ddd-
16eee-
16ddd-
=401
16eee-
16ddd-
16eee-
16ddd-
16eee-
16ddd-
16eee-
16ddd-
16eee-
16ddd-
16eee-
16ddd-
=402
16eee-
16ddd-
16eee-
16ddd-
16eee-
16ddd-
16eee-
16ddd-
16eee-
16ddd-
16eee-
16ddd-
=403
16eee-
16ddd-
16eee-
16ddd-
16eee-
16ddd-
16eee-
16ddd-
16eee-
16ddd-
16eee-
16ddd-
=404
16eee-
16ddd-
16eee-
16ddd-
16eee-
16ddd-
16eee-
16ddd-
16eee-
16ddd-
16eee-
16ddd-
=405
16eee-
16ddd-
16eee-
16ddd-
16eee-
16ddd-
16eee-
16ddd-
16eee-
16ddd-
16eee-
16ddd-
=406
16eee-
16ddd-
16eee-
16ddd-
16eee-
16ddd-
16eee-
16ddd-
16eee-
16ddd-
16eee-
16ddd-
=407
16eee-
16ddd-
16eee-
16ddd-
16eee-
16ddd-
16eee-
16ddd-
16eee-
16ddd-
16eee-
16ddd-
=408
16eee-
16ddd-
16eee-
16ddd-
16eee-
16ddd-
16eee-
16ddd-
16eee-
16ddd-
16eee-
16ddd-
=409
16eee-
16ddd-
16eee-
16ddd-
4dddd-
4r
=410
4r
4dddd-
4r
=411
4r
4cccc-
4r
=412
4bbb-
4r
4r
=413
4r
4aaa-
4r
=414
4ggg-
4r
4r
=415
8cc
8dd-
8gg-
8bb-
8ddd-
8eee-
=416
4fff-
4ddd-
4bb-
=417
4gg
4aa-
4bb-
=418
4ccc-
8aa-
8aa-
4ff-
=419
4ee-
8ff-
8ff-
4gg-
=420
4bb-
4aa-
4ff
=421
4dd-
4dd
4ee-
=422
4ff
4ee-
4dd-
=423
4b-
8r
8g-
8b-
8g-
=424
8dd-
8b-
8ff-
8dd-
8gg
8ff-
=425
2.ddd-[
=426
4.ddd-]
4.ddd-
=427
4.ccc-
4.bb-
=428
2.bb-
=429
2.aa-
=430
4aa-
8r
4.dddd-
=431
4.cccc-
4.bbb-
=432
2.bbb-
=433
2.aaa-[
=434
4aaa-]
8r
4.dddd-
=435
4.cccc-
4.bbb-
=436
4.bbb-
4.aaa-
=437
4.ggg-
4.fff-
=438
4.eee-
4.ddd
=439
4.ddd-
4.ccc
=440
*M3/8
4.bb-
=441
8.cc
16cc
16cc
16cc
=442
16gg-
16aa-
16ccc
16ggg-
16aaa-
16cccc
=443
16gggg-
16ffff
16eeee-
16dddd-
16cccc
16bbb-
=444
16aaa-
16ggg-
16fff
16eee-
16ddd-
16ccc
=445
16bb-
16aa-
16gg-
16ff
16ee-
16dd
=446
16ee-
16ff
16gg-
16aa-
16bb-
16ccc-
=447
16ccc
16ddd-
16eee-
16fff
16ggg-
16aaa-
=448
8bbb-
8ggg-
8eee-
=449
8ccc
8ddd-
8eee-
=450
8fff
8ddd-
8bb-
=451
8gg-
8gg
8aa
=452
8ccc-
8gg
8dd
=453
8cc
8dd-
8ee-
=454
8ff
8gg-
8aa-
=455
8bb-
8gg-
8aa-
=456
8bb-
8gg-
8ee-
=457
8cc
8dd-
8ee-
=458
8ff
8dd-
8b-
=459
8g-
8g
8a
=460
8cc-
8g
8d
=461
8c
8d
8e
=462
8f
8d
8c-
=463
4.r
=464
4.r
=465
8f
8g
8a
=466
8cc-
8dd-
8ee-
=467
8ff
8gg
8aa
=468
8ccc-
8ddd-
8eee-
=469
8fff
8ggg
8aaa
=470
8cccc-
8dddd-
8eeee-
=471
8ffff-
8dddd-
8cccc-
=472
8bbb-
8aaa-
8ggg-
=473
8fff
8eee-
8ddd-
=474
8ccc-
8bb-
8aa-
=475
8fff-
8ddd-
8ccc-
=476
8bb-
8aa-
8gg-
=477
8ff
8ee-
8dd-
=478
8cc-
8b-
8a-
=479
8ff-
8dd-
8cc-
=480
8b-
8a-
8g-
=481
8f
8e-
8d-
=482
8c-
8B-
8A-
=483
8G-
8A-
8B-
=484
8c
8d-
8e-
=485
8f
8g-
8a-
=486
8b-
8cc
8dd-
=487
16.ee-
32ff[
16ff]
16gg-[
32gg-]
16.aa-
=488
16.bb-
32ccc[
16ccc]
16ddd-[
32ddd-]
16.eee-
=489
16.fff
32ggg-[
16ggg-]
16aaa-[
32aaa-]
16.bbb-
=490
16.cccc
32dddd-[
16dddd-]
16eeee-[
32eeee-]
16.ffff
=491
8gggg-
8r
8r
=492
4.r
=493
4.r
=494
8gg-
8r
8r
=495
8ddd-
8r
8r
=496
4.r
=497
8ddd-
8r
8r
=498
4.r
=499
8ggg-
8r
8r
==
*-
